X: 31856
T: Paula's Birthday
R: jig
M: 6/8
K: Gmajor
|:GBd cde|dgf e2d|cBA GAB|AGF D2D|
CEG FzD|EGc B2B|cBA GAB|1 AGF G2D:|2 AGF GBd||
g2g fga|gfd c2c|Bcd c2c|BAG FED|
CEG FzD|EGc B2B|cBA GAB|AGF GBd|
g2g fga|gfd c2c|Bcd c2c|deg f2a|
bag fed|gfe dcB|cBA GAB|AGF G2D||

